packages/axiom-materials/src/icon_svgs/email.svg

<?xml version="1.0" encoding="UTF-8"?>
<svg width="16px" height="16px" viewBox="0 0 16 16" version="1.1" xmlns="http://www.w3.org/2000/svg" xmlns:xlink="http://www.w3.org/1999/xlink">
    <!-- Generator: Sketch 46.2 (44496) - http://www.bohemiancoding.com/sketch -->
    <title>email</title>
    <desc>Created with Sketch.</desc>
    <defs></defs>
    <g id="Page-1" stroke="none" stroke-width="1" fill="none" fill-rule="evenodd">
        <g id="Email" fill="#000000">
            <path d="M7.6299,8.1299 L2.1509,3.1449 C2.2399,3.0559 2.3629,2.9999 2.4999,2.9999 L13.4999,2.9999 C13.6369,2.9999 13.7599,3.0559 13.8509,3.1449 L8.3539,8.1469 C8.1639,8.3359 7.8529,8.3529 7.6299,8.1299 Z M9.0439,8.8701 L13.9999,4.3611 L13.9999,12.5001 C13.9999,12.7761 13.7759,13.0001 13.4999,13.0001 L2.4999,13.0001 C2.2239,13.0001 1.9999,12.7761 1.9999,12.5001 L1.9999,4.3601 L6.9399,8.8531 C7.2339,9.1481 7.6209,9.2941 8.0059,9.2941 C8.3849,9.2941 8.7619,9.1521 9.0439,8.8701 Z" id="Form-Resize"></path>
        </g>
    </g>
</svg>

<svg height="16" viewBox="0 0 16 16" width="16" xmlns="http://www.w3.org/2000/svg"><path d="m7.6299 8.1299-5.479-4.985c.089-.089.212-.145.349-.145h11c.137 0 .26.056.351.145l-5.497 5.002c-.19.189-.501.206-.724-.017zm1.414.7402 4.956-4.509v8.139c0 .276-.224.5-.5.5h-11c-.276 0-.5-.224-.5-.5v-8.14l4.94 4.493c.294.295.681.441 1.066.441.379 0 .756-.142 1.038-.424z" fill-rule="evenodd"/></svg>
